svg/logo/firefox_line.svg

<?xml version="1.0" encoding="UTF-8"?>
<svg width="24px" height="24px" viewBox="0 0 24 24" version="1.1" xmlns="http://www.w3.org/2000/svg" xmlns:xlink="http://www.w3.org/1999/xlink">
    <title>firefox_line</title>
    <g id="Icon" stroke="none" stroke-width="1" fill="none" fill-rule="evenodd">
        <g id="Logo" transform="translate(-336.000000, -192.000000)">
            <g id="firefox_line" transform="translate(336.000000, 192.000000)">
                <path d="M24,0 L24,24 L0,24 L0,0 L24,0 Z M12.5935,23.2578 L12.5819,23.2595 L12.5109,23.295 L12.4919,23.2987 L12.4767,23.295 L12.4057,23.2595 C12.3958,23.2564 12.387,23.259 12.3821,23.2649 L12.378,23.2758 L12.3609,23.7031 L12.3659,23.7235 L12.3769,23.7357 L12.4805,23.8097 L12.4953,23.8136 L12.5071,23.8097 L12.6107,23.7357 L12.6233,23.7197 L12.6267,23.7031 L12.6096,23.2758 C12.6076,23.2657 12.601,23.2593 12.5935,23.2578 Z M12.8584,23.1453 L12.8445,23.1473 L12.6598,23.2397 L12.6499,23.2499 L12.6472,23.2611 L12.6651,23.6906 L12.6699,23.7034 L12.6784,23.7105 L12.8793,23.8032 C12.8914,23.8069 12.9022,23.803 12.9078,23.7952 L12.9118,23.7812 L12.8777,23.1665 C12.8753,23.1546 12.8674,23.147 12.8584,23.1453 Z M12.143,23.1473 C12.1332,23.1424 12.1222,23.1453 12.1156,23.1526 L12.1099,23.1665 L12.0758,23.7812 C12.0751,23.7927 12.0828,23.8019 12.0926,23.8046 L12.1083,23.8032 L12.3092,23.7105 L12.3186,23.7024 L12.3225,23.6906 L12.3404,23.2611 L12.3372,23.2485 L12.3278,23.2397 L12.143,23.1473 Z" id="MingCute" fill-rule="nonzero"></path>
                <path d="M8.33211,4.88832 C9.42974,4.32091 10.676,4 12.0001,4 C15.4379,4 18.3692,6.1684 19.5009,9.21207 C19.5054,9.23627 19.5108,9.26049 19.5171,9.28468 C19.7154,10.0419 19.6824,11.3647 19.1709,12.574 C18.6761,13.7439 17.7801,14.7146 16.2979,15.0207 C13.397,15.6196 11.4899,13.6963 10.966,11.7412 C10.8536,11.3214 10.7212,10.6659 10.6443,10.0162 C10.5627,9.32622 10.564,8.79962 10.6255,8.55458 C10.7335,8.12391 10.5446,7.67358 10.1617,7.44883 C9.77877,7.22409 9.29351,7.27875 8.97017,7.58305 C7.9769,8.51784 7.23815,9.69384 6.82479,10.9894 C6.7279,10.4249 6.64177,9.71431 6.59886,8.9558 C6.53131,7.76162 6.57744,6.55324 6.80496,5.66584 C6.91597,5.23288 6.72618,4.77883 6.34008,4.55365 C5.95398,4.32848 5.46533,4.38686 5.14316,4.69667 C2.42262,7.31277 1.35175,11.1484 2.31931,14.5162 C3.43504,18.821 7.34632,22 12.0001,22 C17.5229,22 22.0001,17.5228 22.0001,12 C22.0001,6.47715 17.5229,2 12.0001,2 C10.3489,2 8.78852,2.40095 7.41368,3.11168 C6.92307,3.36529 6.73095,3.96861 6.98457,4.45922 C7.23818,4.94982 7.8415,5.14194 8.33211,4.88832 Z M4.00009,12 C4.00009,10.9494 4.18771,9.92155 4.59565,8.94949 C4.66329,10.281 4.85598,11.5389 5.06149,12.3059 C5.42837,13.6751 5.958,15.085 7.05109,16.1756 C7.376,16.4998 7.87987,16.5612 8.2731,16.3245 C8.66634,16.0878 8.84796,15.6138 8.71357,15.175 C8.32927,13.9199 8.36598,12.5552 8.82436,11.3244 C8.89088,11.675 8.96405,11.9971 9.03418,12.2588 C9.75843,14.9617 12.5059,17.8458 16.7023,16.9793 C17.5656,16.8011 18.2965,16.4691 18.9087,16.0363 C17.5203,18.4075 14.9462,20 12.00009,20 C8.3187,20 5.21809,17.5134 4.28624,14.1281 C4.13951,13.4168 4.00009,12.7324 4.00009,12 Z" id="形状" fill="#09244B"></path>
            </g>
        </g>
    </g>
</svg>

<svg xmlns="http://www.w3.org/2000/svg" width="24" height="24"><g fill="none" fill-rule="evenodd"><path d="M24 0v24H0V0h24ZM12.594 23.258l-.012.002-.071.035-.02.004-.014-.004-.071-.036c-.01-.003-.019 0-.024.006l-.004.01-.017.428.005.02.01.013.104.074.015.004.012-.004.104-.074.012-.016.004-.017-.017-.427c-.002-.01-.009-.017-.016-.018Zm.264-.113-.014.002-.184.093-.01.01-.003.011.018.43.005.012.008.008.201.092c.012.004.023 0 .029-.008l.004-.014-.034-.614c-.003-.012-.01-.02-.02-.022Zm-.715.002a.023.023 0 0 0-.027.006l-.006.014-.034.614c0 .012.007.02.017.024l.015-.002.201-.093.01-.008.003-.011.018-.43-.003-.012-.01-.01-.184-.092Z"/><path fill="#09244B" d="M8.332 4.888a8.003 8.003 0 0 1 11.169 4.324c.004.024.01.048.016.073.198.757.165 2.08-.346 3.289-.495 1.17-1.39 2.14-2.873 2.447-2.901.599-4.808-1.325-5.332-3.28a13.219 13.219 0 0 1-.322-1.725c-.081-.69-.08-1.216-.018-1.461a1 1 0 0 0-1.656-.972 8.038 8.038 0 0 0-2.145 3.406 18.516 18.516 0 0 1-.226-2.033c-.068-1.194-.022-2.403.206-3.29a1 1 0 0 0-1.662-.97c-2.72 2.617-3.791 6.452-2.824 9.82C3.435 18.821 7.346 22 12 22c5.523 0 10-4.477 10-10S17.523 2 12 2c-1.651 0-3.211.4-4.586 1.112a1 1 0 1 0 .918 1.776ZM4 12c0-1.05.188-2.078.596-3.05.067 1.331.26 2.589.465 3.356.367 1.37.897 2.779 1.99 3.87a1 1 0 0 0 1.663-1.001 6.026 6.026 0 0 1 .11-3.85c.067.35.14.672.21.934.724 2.703 3.472 5.587 7.668 4.72a5.82 5.82 0 0 0 2.207-.943 8.003 8.003 0 0 1-14.622-1.908C4.14 13.417 4 12.732 4 12Z"/></g></svg>
